lib/radiotmp/nrk-media-playlist-added-expressive.svg

<svg width="24" height="24" viewBox="0 0 24 24" fill="none" xmlns="http://www.w3.org/2000/svg">
<g opacity="0.3">
<path d="M2 6C2 5.44772 2.44772 5 3 5H9C9.55228 5 10 5.44772 10 6C10 6.55228 9.55228 7 9 7H3C2.44772 7 2 6.55228 2 6Z" fill="black"/>
<path d="M2 12C2 11.4477 2.44772 11 3 11H9C9.55228 11 10 11.4477 10 12C10 12.5523 9.55228 13 9 13H3C2.44772 13 2 12.5523 2 12Z" fill="black"/>
<path d="M22 18C22 17.4477 21.5523 17 21 17H3C2.44772 17 2 17.4477 2 18C2 18.5523 2.44772 19 3 19H21C21.5523 19 22 18.5523 22 18Z" fill="black"/>
</g>
<path fill-rule="evenodd" clip-rule="evenodd" d="M21.9576 5.25021C22.352 5.64464 22.3488 6.28681 21.9488 6.67563L16.265 12.2012C15.8597 12.5953 15.2085 12.5752 14.8281 12.1569L12.689 9.80451C12.3112 9.38899 12.3556 8.73864 12.78 8.37082C13.1854 8.0194 13.8017 8.04571 14.1692 8.43665L15.6283 9.98882L20.5549 5.23634C20.9474 4.85777 21.572 4.86464 21.9576 5.25021Z" fill="black"/>
</svg>

<svg xmlns="http://www.w3.org/2000/svg" viewBox="0 0 24 24"><g fill="#000" opacity=".3"><path d="M2 6a1 1 0 0 1 1-1h6a1 1 0 0 1 0 2H3a1 1 0 0 1-1-1ZM2 12a1 1 0 0 1 1-1h6a1 1 0 1 1 0 2H3a1 1 0 0 1-1-1ZM22 18a1 1 0 0 0-1-1H3a1 1 0 1 0 0 2h18a1 1 0 0 0 1-1Z"/></g><path fill="#000" fill-rule="evenodd" d="M21.958 5.25a1.002 1.002 0 0 1-.01 1.426L16.266 12.2a1 1 0 0 1-1.437-.044L12.69 9.805a1.007 1.007 0 0 1 .091-1.434 1.007 1.007 0 0 1 1.39.066l1.458 1.552 4.927-4.753a1.002 1.002 0 0 1 1.403.014Z" clip-rule="evenodd"/></svg>
